build/img/look.svg

<svg width="30" height="30" viewBox="0 0 30 30" fill="none" xmlns="http://www.w3.org/2000/svg">
<circle opacity="0.1" cx="15" cy="15" r="15" fill="#9564AA"/>
<path fill-rule="evenodd" clip-rule="evenodd" d="M15 9.66663C16.8184 9.66663 18.5571 10.6204 20.1775 12.1874C20.7304 12.722 21.2305 13.2927 21.6707 13.8637C21.9364 14.2083 22.125 14.4793 22.2283 14.6408L22.458 15L22.2283 15.3592C22.125 15.5206 21.9364 15.7917 21.6707 16.1362C21.2305 16.7072 20.7304 17.2779 20.1775 17.8125C18.5571 19.3795 16.8184 20.3333 15 20.3333C13.1817 20.3333 11.4429 19.3795 9.82249 17.8125C9.26968 17.2779 8.76955 16.7072 8.32929 16.1362C8.06362 15.7917 7.875 15.5206 7.77173 15.3592L7.54199 15L7.77173 14.6408C7.875 14.4793 8.06362 14.2083 8.32929 13.8637C8.76955 13.2927 9.26968 12.722 9.82249 12.1874C11.4429 10.6204 13.1817 9.66663 15 9.66663ZM20.6149 14.6779C20.2118 14.1551 19.7535 13.6321 19.2507 13.1459C17.855 11.7962 16.4034 11 15 11C13.5966 11 12.145 11.7962 10.7494 13.1459C10.2466 13.6321 9.78827 14.1551 9.38518 14.6779C9.29812 14.7908 9.21767 14.8985 9.14413 15C9.21767 15.1014 9.29812 15.2091 9.38518 15.322C9.78827 15.8448 10.2466 16.3678 10.7494 16.8541C12.145 18.2037 13.5966 19 15 19C16.4034 19 17.855 18.2037 19.2507 16.8541C19.7535 16.3678 20.2118 15.8448 20.6149 15.322C20.7019 15.2091 20.7824 15.1014 20.8559 15C20.7824 14.8985 20.7019 14.7908 20.6149 14.6779ZM12.3333 15C12.3333 16.4727 13.5273 17.6666 15 17.6666C16.4728 17.6666 17.6667 16.4727 17.6667 15C17.6667 13.5272 16.4728 12.3333 15 12.3333C13.5273 12.3333 12.3333 13.5272 12.3333 15ZM16.3333 15C16.3333 15.7363 15.7364 16.3333 15 16.3333C14.2636 16.3333 13.6667 15.7363 13.6667 15C13.6667 14.2636 14.2636 13.6666 15 13.6666C15.7364 13.6666 16.3333 14.2636 16.3333 15Z" fill="#9564AA"/>
</svg>

<svg width="30" height="30" fill="none" xmlns="http://www.w3.org/2000/svg"><circle opacity=".1" cx="15" cy="15" r="15" fill="#9564AA"/><path fill-rule="evenodd" clip-rule="evenodd" d="M15 9.667c1.818 0 3.557.953 5.177 2.52a15.518 15.518 0 0 1 2.051 2.454l.23.359-.23.36a15.518 15.518 0 0 1-2.05 2.453c-1.62 1.567-3.36 2.52-5.178 2.52s-3.557-.953-5.178-2.52a15.534 15.534 0 0 1-2.05-2.454L7.542 15l.23-.36a15.534 15.534 0 0 1 2.05-2.453c1.62-1.567 3.36-2.52 5.178-2.52Zm5.615 5.01a14.213 14.213 0 0 0-1.364-1.531C17.855 11.796 16.403 11 15 11c-1.403 0-2.855.796-4.25 2.146A14.212 14.212 0 0 0 9.143 15a14.223 14.223 0 0 0 1.605 1.854C12.145 18.204 13.597 19 15 19c1.403 0 2.855-.796 4.25-2.146A14.224 14.224 0 0 0 20.857 15c-.074-.101-.154-.21-.241-.322ZM12.333 15a2.667 2.667 0 1 0 5.334 0 2.667 2.667 0 0 0-5.334 0Zm4 0a1.333 1.333 0 1 1-2.666 0 1.333 1.333 0 0 1 2.666 0Z" fill="#9564AA"/></svg>
